!!!!SEGMENT: pl-sa--79-a-ii-19--006_siwinski-andrzej--missa-pro-defunctis-mors.krn
!!!cenid: 17xx:298
!!!COM: Siwiński, Andrzej
!!!COM-rismid: pe41011487
!!!CDT: <1725->1725
!!!CNT:
!!!OPR: Missa pro defunctis
!!!OTL: Mors
!!!OMV: 006
!!!PDT: 1726
!!!AGN: Sacred; Mass
!!!SMS-siglum: PL-SA
!!!SMS-shelfmark: 79/A II 19
!!!SMS-shelfwork: 001-006 M
!!!NIFC-rismid: 1001070177
!!!URL-scan: http://bc.bdsandomierz.pl/dlibra/publication/1356/edition/1324/content
!!!ONB-nifc: Uwaga: części Mszy: Requiem, Kyrie, Dies Irae, Quantus tremor, Tuba mirrum, Mors, Quid sum miser, Rex tremende, Quaerens me, Iuste iudex, Oro supplex, Pie Iesu Domine, Domine Iesu Christe,Quam olim Abrahae, Hostias, Sanctus, Osanna, Benedictus, Agnus Dei
!!!AIN: 1 alto 3 empty 2 oboe 2 violn 1 vox
!!!key:
**kern	**fba	**kern	**kern	**kern	**text	**kern	**text	**kern	**text	**kern	**text	**kern	**kern
*part9	*	*part8	*part7	*part6	*part6	*part5	*part5	*part4	*part4	*part3	*part3	*part2	*part1
*	*	*group3	*group3	*group2	*	*group2	*	*group2	*	*group2	*	*group1	*group1
*staff9	*	*staff8	*staff7	*staff6	*staff6	*staff5	*staff5	*staff4	*staff4	*staff3	*staff3	*staff2	*staff1
*Iempty	*	*Ivioln	*Ivioln	*Iempty	*	*Iempty	*	*Ialto	*	*Ivox	*	*Ioboe	*Ioboe
*I"P9	*	*I"Violino. 2do	*I"Violino 1mo	*I"P6	*	*I"P5	*	*I"Alto.	*	*I"Canto	*	*I"Hobois 2do.	*I"Hautbo. 1mo.
*I'bc	*	*I'vl 2	*I'vl 1	*I'B	*	*I'T	*	*I'A	*	*I'S	*	*I'ob 2	*I'ob 1
*clefF4	*	*clefG2	*clefG2	*clefF4	*	*clefC4	*	*clefC3	*	*clefC1	*	*clefG2	*clefG2
*k[b-e-]	*	*k[e-b-]	*k[b-e-]	*k[b-e-]	*	*k[b-e-]	*	*k[b-e-]	*	*k[b-e-]	*	*k[e-b-]	*k[b-e-]
*c:	*	*c:	*c:	*c:	*	*c:	*	*c:	*	*c:	*	*c:	*c:
*M6/4	*	*M6/4	*M6/4	*M6/4	*	*M6/4	*	*M6/4	*	*M6/4	*	*M6/4	*M6/4
=1	=1	=1	=1	=1	=1	=1	=1	=1	=1	=1	=1	=1	=1
!LO:TX:b:i:t=Tutti Mors Stupebit.	!	!LO:TX:b:t=Morſ	!LO:TX:b:i:t=Mors Stupebit	!	!	!	!	!	!	!LO:TX:a:t=P:problem=bemole b- ee-	!	!LO:TX:b:i:t=Mors Stupebit	!LO:TX:b:i:t=Mors Stupebit
!LO:TX:a:t=P:problem=brak nazwy partii (na stronie tytułowej "Baſso pro Organo")	!	!	!	!LO:TX:a:t=P:problem=brak nazwy partii (na stronie tytułowej "Baſso vocali")	!	!LO:TX:a:t=P:problem=brak nazwy partii (na stronie tytułowej "Tenore")	!	!	!	!	!	!	!
4C/	.	4ee-\	4gg\	4c\	Mors	4c\	Mors	4g\	Mors	4ee-\	Mors	4cc\	4ee-\
4r	.	4r	4r	4r	.	4r	.	4r	.	4r	.	4r	4r
4r	.	4r	4r	4r	.	4r	.	4r	.	4r	.	4r	4r
*	*	*	*	*	*ij	*	*ij	*	*ij	*	*	*	*
4G\	.	4dd\	4gg\	4G\	Mors	4Bn\	Mors	4g\	Mors	4dd\	mors	4g/	4dd\
4r	.	4r	4r	4r	.	4r	.	4r	.	4r	.	4r	4r
4r	.	4r	4r	4r	.	4r	.	4r	.	4r	.	4r	4r
=2	=2	=2	=2	=2	=2	=2	=2	=2	=2	=2	=2	=2	=2
*	*	*	*	*	*	*	*	*	*	*	*ij	*	*
4C/	.	4ee-\	4gg\	4C/	Mors	4c\	Mors	4g\	Mors	4ee-\	mors	4e-/	4cc\
*	*	*	*	*	*Xij	*	*Xij	*	*Xij	*	*Xij	*	*
4r	.	4r	4r	4r	.	4r	.	4r	.	4r	.	4r	4r
4c\	.	4r	4r	4c\	ſtu-	4c\	Stu-	4g\	Stu-	4ee-\	stu-	4r	4r
!	!	!	!	!	!	!	!	!	!	!	!	!	!LO:N:vis=2
!	!	!LO:N:vis=2	!LO:N:vis=2	!	!	!	!	!LO:TX:a:t=P:global:problem=trudno ocenić, czy to mordent, czy tryl, przyjęto mordent	!	!	!	!LO:N:vis=2	!
4Bn\	6	2.rg	2.r	4Bn\	-pe-	4G/	-pe-	2.gM\	-pe-	(4dd\	-pe-	2.rg	2.rg
4A\	.	.	.	4A\	.	(4A/	.	.	.	4cc\	.	.	.
!	!	!	!	!	!	!	!	!	!	!	!	!	!LO:TX:b:t=Verte Cito
4B\	6	.	.	4B\	.	4Bn/)	.	.	.	4dd\)	.	.	.
!LO:LB:g=original	!	!	!	!	!	!	!	!	!	!	!	!	!
=3	=3	=3	=3	=3	=3	=3	=3	=3	=3	=3	=3	=3	=3
!	!	!LO:N:vis=2	!LO:N:vis=2	!	!	!	!	!	!	!	!	!LO:N:vis=2	!LO:N:vis=2
4G\	.	2.rg	2.r	4G\	.	4d\	.	2.gM\	.	(4bn\	.	2.rg	2.r
4A\	.	.	.	4An\	.	4c\	.	.	.	4cc\	.	.	.
!	!	!	!	!	!	!LO:TX:a:t=P:problem=♮ above	!	!	!	!	!	!	!
4Bn\	.	.	.	4Bn\	.	4Bn\	.	.	.	4dd\)	.	.	.
!	!	!	!	!	!	!	!	!LO:LB:g=original	!	!	!	!	!
4c\	.	4r	4r	4c\	.	4c\	.	4g\	.	4ee-\	.	4r	4r
2C/	.	4r	4r	4C/	-bit	4c\	-bit	4g\	-bit	4ee-\	-bit	4r	4r
.	.	4ee-\	4gg\	4r	.	4r	.	4r	.	4r	.	4g/	4ee-\
!	!	!	!	!LO:LB:g=original	!	!	!	!	!	!	!	!	!
=4	=4	=4	=4	=4	=4	=4	=4	=4	=4	=4	=4	=4	=4
*	*	*	*2\right	*	*	*	*	*	*	*	*	*	*
!	!	!	!LO:TX:a:t=P:global:problem=trudno ocenić, czy to mordent, czy tryl, przyjęto mordent	!LO:TX:a:t=1	!	!	!	!	!	!	!	!	!
4BBn/	6	4dd\	2.ggM\	1.r	.	1.r	.	1.r	.	1.r	.	4g/	4dd\
4AA/	.	4cc\	.	.	.	.	.	.	.	.	.	4r	4cc\
4BB/	.	4dd\	.	.	.	.	.	.	.	.	.	4r	4dd\
4GG/	.	4bn\	2.ggM\	.	.	.	.	.	.	.	.	4dd\	4bn/
4AA/	.	4cc\	.	.	.	.	.	.	.	.	.	4r	4cc/
4BB/	6	4dd\	.	.	.	.	.	.	.	.	.	4r	4dd/
=5	=5	=5	=5	=5	=5	=5	=5	=5-	=5	=5-	=5	=5	=5
2C/	.	4ee-\	4gg\	4r	.	4r	.	4r	.	4r	.	4cc\	4ee-\
.	.	4cc\	4gg\	4r	.	4r	.	4r	.	4r	.	4cc\	4cc\
4c\	.	4ee-\	4gg\	4c\	ſtu-	4c\	Stu-	4g\	Stu-	4ee-\	Stu-	4cc\	4ee-\
!	!	!	!	!	!	!	!	!	!	!	!	!LO:LB:g=original	!
4Bn\	6	4dd\	2.ggM\	4Bn\	-pe-	4G/	-pe-	2.g\	-pe-	(4dd\	-pe-	4g/	4dd\
!	!	!	!	!LO:TX:a:t=P:problem=♮ above	!	!	!	!	!	!	!	!	!
4A\	.	4cc\	.	4An\	.	4A/	.	.	.	4cc\	.	4r	4cc\
4B\	.	4dd\	.	4B\	.	4B-/	.	.	.	4dd\)	.	4r	4dd\
=6	=6	=6	=6	=6	=6	=6	=6	=6	=6	=6	=6	=6	=6
!	!	!	!	!	!	!	!	!	!	!LO:TX:a:t=P:problem=♮ above	!	!	!
4G\	.	4bn\	2.ggM\	4G\	.	4d\	.	2.g\	.	(4bn\	.	4dd\	4bn/
4A\	.	4cc\	.	4An\	.	(4c\	.	.	.	4cc\	.	4r	4cc/
!	!	!LO:TX:b:t=verte	!	!	!	!	!	!	!	!	!	!	!
4Bn\	6	4dd\	.	4Bn\	.	4Bn\)	.	.	.	4dd\)	.	4r	4dd/
!	!	!LO:PB:g=original	!	!	!	!	!	!	!	!	!	!	!
2c\	.	2ee-\	4gg\	4c\	.	4c\	.	4g\	.	4ee-\	.	4cc\	2ee-\
.	.	.	4gg\	4c\	-bit	4c\	-bit	4g\	-bit	4ee-\	-bit	4g\	.
4C/	.	4ee-\	4gg\	4C/	ſtu-	4c\	Stu-	4g\	stu-	4ee-\	stu-	4cc\	4ee-\
=7	=7	=7	=7	=7	=7	=7	=7	=7	=7	=7	=7	=7	=7
4F\	.	4cc\	4aa-X\	4F\	-pe-	4A-X\	-pe-	4a-X\	-pe-	4cc\	-pe-	2a-X/	4cc\
4G\	.	4dd\	4aa-\	4G\	-bit	4B-\	-bit	4g\	-bit	4cc\	-bit	.	4dd\
4A-X\	.	4ee-\	4aa-\	4A-X\	et	4c\	et	4e-\	et	4cc\	et	4a-/	4ee-\
!	!	!	!LO:TX:a:t=P:problem=♭ above	!	!	!	!	!	!	!	!	!	!
4F\	.	4cc\	4aa-X\	4F\	na-	4A-X\	Na-	4a-X\	na-	4cc\	na-	4a-/	4cc\
!	!	!	!	!	!	!	!	!	!	!	!	!	!LO:TX:a:t=P:global:problem=trudno ocenić, czy to mordent, czy tryl, przyjęto mordent
2G\	4	2dd\	2gg\	2G\	-tu-	2Bn\	-tu-	2g\	-tu-	2bn\	-tu-	2g/	2ddm\
.	3	.	.	.	.	.	.	.	.	.	.	.	.
!	!	!	!	!	!	!	!	!	!	!LO:LB:g=original	!	!	!
=8	=8	=8	=8	=8	=8	=8	=8	=8	=8	=8	=8	=8	=8
2C/	.	4ee-\	4gg\	4C/	-ra	4c\	-ra	4g\	-ra	4cc\	-ra	4e-/	4cc\
.	.	4ee-\	4gg\	4r	.	4r	.	4r	.	4r	.	4r	4r
4F\	7	4ee-\	4cc\	4r	.	4r	.	4r	.	4r	.	4r	4r
!	!	!	!	!	!	!LO:LB:g=original	!	!	!	!	!	!	!
!	!	!	!LO:TX:a:t=P:problem=♮ above	!LO:N:vis=2	!	!LO:N:vis=2	!	!LO:N:vis=2	!	!LO:N:vis=2	!	!	!
2G\	.	2dd\	2bnm\	2.rC	.	2.r	.	2.rA	.	2.rf	.	4r	4r
.	.	.	.	.	.	.	.	.	.	.	.	4bn\	4dd\
4GG/	.	4r	8r	.	.	.	.	.	.	.	.	4b\	4dd\
.	.	.	8r	.	.	.	.	.	.	.	.	.	.
=9	=9	=9	=9	=9	=9	=9	=9	=9-	=9	=9-	=9	=9	=9
!	!	!	!	!LO:N:vis=0	!	!LO:N:vis=0	!	!LO:N:vis=0	!	!LO:N:vis=00	!	!	!
2C/	.	4r	4r	0.r	.	0.r	.	0.r	.	00.r	.	4cc\	4ee-\
.	.	4ee-\	4gg\	.	.	.	.	.	.	.	.	4r	4r
4F\	7	4ee-\	4cc\	.	.	.	.	.	.	.	.	4r	4r
2G\	.	2dd\	2bnm\	.	.	.	.	.	.	.	.	4r	4r
!	!	!	!	!	!	!	!	!	!	!	!	!LO:TX:a:t=P:problem=♮ above	!
.	.	.	.	.	.	.	.	.	.	.	.	4bn\	4dd\
4GG/	.	4r	4r	.	.	.	.	.	.	.	.	4b\	4dd\
=10	=10	=10	=10	=10	=10	=10	=10	=10	=10	=10	=10	=10	=10
2.C/	.	4r	4r	.	.	.	.	.	.	.	.	4cc\	4ee-\
.	.	4ee-\	4gg\	.	.	.	.	.	.	.	.	4ee-\	4gg\
.	.	4ee-\	4gg\	.	.	.	.	.	.	.	.	4ee-\	4gg\
!	!	!	!	!	!	!	!	!	!	!	!	!	!LO:TX:a:t=P:problem=bemol aa- na końcu linijki
!	!	!	!LO:LB:g=original	!	!	!	!	!	!	!	!	!	!LO:LB:g=original
4F\	.	4ff\	4aa-X\	.	.	.	.	.	.	.	.	4ff\	4aa-X\
2BB-/	5	4dd\	4ff\	.	.	.	.	.	.	.	.	4dd\	4ff\
.	.	4dd\	4ff\	.	.	.	.	.	.	.	.	4dd\	4ff\
!LO:LB:g=original	!	!	!	!	!	!	!	!	!	!	!	!	!
=11	=11	=11	=11	=11	=11	=11	=11	=11	=11	=11	=11	=11	=11
4E-\	.	4ee-\	4gg\	1.r	.	1.r	.	1.r	.	.	.	4ee-\	4gg\
2AA-X/	5	4cc\	4ee-\	.	.	.	.	.	.	.	.	4cc\	4ee-\
.	.	4cc\	4ee-\	.	.	.	.	.	.	.	.	4cc\	4ee-\
4D\	.	4dd\	8ff\L	.	.	.	.	.	.	.	.	4dd\	(8ff\L
.	.	.	8gg\J	.	.	.	.	.	.	.	.	.	8gg\J)
4G\	.	2bn\	2dd\	.	.	.	.	.	.	.	.	2g/	2ddm\
4GG/	4	.	.	.	.	.	.	.	.	.	.	.	.
.	3	.	.	.	.	.	.	.	.	.	.	.	.
=12	=12	=12	=12	=12	=12	=12	=12	=12	=12	=12	=12	=12	=12
!LO:TX:b:i:t=Solo as	!	!	!	!	!	!	!	!	!	!	!	!	!
4C/	.	4cc\	4cc\	4r	.	4r	.	4r	.	.	.	4e-/	4cc\
8C/L	.	4r	4r	(8C/L	Cum	4c\	Cum	4e-\	Cum	.	.	4r	4r
8D/	.	.	.	8D/J)	.	.	.	.	.	.	.	.	.
8E-/	.	4r	4r	(8E-\L	res-	4c\	re-	4e-\	res-	.	.	4r	4r
8F/J	.	.	.	8F\J)	.	.	.	.	.	.	.	.	.
!	!	!LO:TX:a:t=P:problem=skreślona kreska taktowa	!	!	!	!	!	!	!	!	!	!	!
!	!	!LO:N:vis=2	!LO:N:vis=2	!	!	!	!	!	!	!	!	!LO:N:vis=2	!LO:N:vis=2
2G\	.	2.rg	2.rg	4G\	-ſur-	4Bn\	-sur-	4d\	-sur-	.	.	2.rg	2.rg
.	.	.	.	4G\	-get	4B\	-get	4d\	-get	.	.	.	.
4G\	.	.	.	4G\	Cre-	4B\	Cre-	4d\	cres-	.	.	.	.
!	!	!	!	!LO:LB:g=original	!	!	!	!	!	!	!	!	!
=13	=13	=13	=13	=13	=13	=13	=13	=13	=13	=13	=13	=13	=13
!	!	!LO:N:vis=00	!LO:N:vis=00	!	!	!	!	!	!	!LO:N:vis=00	!	!LO:N:vis=00	!LO:N:vis=00
4A-X\	.	00.r	00.r	4A-X\	-a-	4c\	-a-	4e-\	-a-	00.r	.	00.r	00.r
4G\	.	.	.	4G\	.	2c\	-tu-	2f\	-tu-	.	.	.	.
4F\	-6	.	.	4F\	-tu-	.	.	.	.	.	.	.	.
2G\	.	.	.	2G\	-ra	2Bn\	-ra	4g\	-ra	.	.	.	.
!	!	!	!	!	!	!	!	!LO:LB:g=original	!	!	!	!	!
.	.	.	.	.	.	.	.	4g\	Ju-	.	.	.	.
4r	.	.	.	4r	.	4r	.	4f\	-di-	.	.	.	.
=14	=14	=14	=14	=14	=14	=14	=14	=14	=14	=14	=14	=14	=14
!	!	!	!	!	!	!LO:N:vis=2	!	!	!	!	!	!	!
4r	.	.	.	4r	.	2r	.	4.e-\	-can-	.	.	.	.
4c\	.	.	.	4c\	Ju-	.	.	.	.	.	.	.	.
.	.	.	.	.	.	.	.	8c\L	.	.	.	.	.
4B-\	.	.	.	4B-X\	-di-	4ryy	.	8d\	.	.	.	.	.
.	.	.	.	.	.	.	.	8e-\J	.	.	.	.	.
4.A-X\	6	.	.	4.A-X\	-can-	4r	.	4f\	.	.	.	.	.
.	.	.	.	.	.	4c\	Ju-	4f\	di	.	.	.	.
8F\L	.	.	.	8F\L	.	.	.	.	.	.	.	.	.
8G\	.	.	.	8G\	.	4c\	-di-	8f\	Ju-	.	.	.	.
8A-\J	.	.	.	8A-X\J	.	.	.	8f\	-di-	.	.	.	.
=15	=15	=15	=15	=15	=15	=15	=15	=15	=15	=15	=15	=15	=15
2B-\	.	.	.	4B-\	.	4d\	-can-	4.e-\	-can-	.	.	.	.
.	.	.	.	4B-\	-di	4d\	-di	.	.	.	.	.	.
.	.	.	.	.	.	.	.	8B-/	-di	.	.	.	.
4G\	.	.	.	4G\	res-	4B-\	res-	(8c\L	res-	.	.	.	.
.	.	.	.	.	.	.	.	8d\J)	.	.	.	.	.
4A-X\	.	.	.	4A-X\	-pon-	4c\	-pon-	4e-\	-pon-	.	.	.	.
4B-\	.	.	.	2B-\	-ſu-	2d\	-su-	2f\	-su-	.	.	.	.
4BB-/	.	.	.	.	.	.	.	.	.	.	.	.	.
=16	=16	=16	=16	=16	=16	=16	=16	=16	=16	=16	=16	=16	=16
4E-\	.	.	.	4E-\	-ra	4e-\	-ra	4g\	-ra	.	.	.	.
*	*	*	*	*	*	*	*ij	*	*	*	*	*	*
4G\	-	.	.	4G\	Ju-	4B-\	Ju-	4d\	Ju-	.	.	.	.
4G\	.	.	.	4G\	-di	4B-\	-di-	4d\	-di-	.	.	.	.
4.D/	#	.	.	4.D/	Can-	4.A/	-can-	4.d\	-can-	.	.	.	.
8C/	.	.	.	8C/	-di	8G/	-di	8e-\	-di	.	.	.	.
4BB-/	.	.	.	4BB-/	res-	4B-\	res-	4d\	res-	.	.	.	.
=17	=17	=17-	=17-	=17	=17	=17	=17	=17	=17	=17	=17	=17	=17
!	!	!LO:N:vis=2	!LO:N:vis=2	!	!	!	!	!	!	!LO:N:vis=0	!	!LO:N:vis=00	!LO:N:vis=00
4C/	.	2.rg	2.r	4C/	-pon-	4c\	-pon-	4g\	-pon-	0.r	.	00.r	00.r
4D/	.	.	.	2D/	-ſu-	2A/	-su-	2f#X\	-su-	.	.	.	.
4DD/	4	.	.	.	.	.	.	.	.	.	.	.	.
.	3	.	.	.	.	.	.	.	.	.	.	.	.
2.GG/	.	4r	4r	4GG/	-ra	4B-\	-ra	4g\	-ra	.	.	.	.
*	*	*	*	*	*	*	*Xij	*	*	*	*	*	*
.	.	4b-\	4dd\	4r	.	4r	.	4r	.	.	.	.	.
.	.	4b-\	4dd\	4r	.	4r	.	4r	.	.	.	.	.
!	!	!	!	!	!	!LO:LB:g=original	!	!	!	!	!	!	!
=18	=18	=18	=18	=18	=18	=18	=18	=18	=18	=18	=18	=18	=18
4C/	.	4cc\	4ee-\	1.r	.	1.r	.	1.r	.	.	.	.	.
2F\	5	4a/	4cc\	.	.	.	.	.	.	.	.	.	.
.	.	4a/	4cc\	.	.	.	.	.	.	.	.	.	.
!LO:LB:g=original	!	!	!	!	!	!	!	!	!	!	!	!	!
4BB-/	.	4b-/	4dd\	.	.	.	.	.	.	.	.	.	.
2E-\	5	4g/	4b-\	.	.	.	.	.	.	.	.	.	.
.	.	4g/	4b-\	.	.	.	.	.	.	.	.	.	.
=19	=19	=19	=19	=19	=19	=19-	=19	=19-	=19	=19	=19	=19	=19
!	!	!	!	!LO:N:vis=2	!	!LO:N:vis=2	!	!LO:N:vis=2	!	!LO:N:vis=2	!	!	!
4AA/	.	4a/	(8cc\L	2.rC	.	2.r	.	2.r	.	2.rf	.	.	.
.	.	.	8dd\J)	.	.	.	.	.	.	.	.	.	.
4D\	.	4f#X/	4.a/	.	.	.	.	.	.	.	.	.	.
4DD/	4	4f#/	.	.	.	.	.	.	.	.	.	.	.
.	3	.	8g/	.	.	.	.	.	.	.	.	.	.
!	!	!LO:LB:g=original	!	!	!	!	!	!	!	!	!	!	!
4GG/	.	4g/	4g/	4r	.	4r	.	4r	.	4r	.	.	.
4G\	.	4b-/	4dd\	4G\	Ju-	4d\	Ju-	4g\	Ju-	4b-\	Ju-	.	.
4G\	.	4b-/	4gg\	4G\	-di	4d\	-di-	4g\	-di-	4b-\	-di-	.	.
!	!	!	!	!LO:LB:g=original	!	!	!	!	!	!	!	!	!
=20	=20	=20	=20	=20	=20	=20	=20	=20	=20	=20	=20	=20	=20
2F#X\	6	2dd\	2aa\	2F#X\	Can-	2d\	-can-	2a\	-can-	2a\	-can-	.	.
!	!	!	!	!	!	!	!	!LO:TX:a:t=P:problem=# above	!	!	!	!	!
4D\	#	4dd\	4aa\	4D\	-di	4d\	-di	4f#X\	-di	4a\	-di	.	.
!	!	!	!	!	!	!	!	!LO:LB:g=original	!	!	!	!	!
4r	.	4r	4r	4r	.	4r	.	4r	.	4r	.	.	.
*	*	*	*	*	*	*	*ij	*	*	*	*	*	*
4GG/	.	4b-\	4dd\	4GG/	Ju-	4d\	Ju-	4g\	Ju-	4b-\	Ju-	.	.
4GG/	-	4b-\	4gg\	4GG/	-di-	4d\	-di-	4g\	-di-	4b-\	-di-	.	.
=21	=21	=21	=21	=21	=21	=21	=21	=21	=21	=21	=21	=21	=21
!	!	!	!	!	!	!	!	!	!	!	!	!LO:N:vis=00	!LO:N:vis=00
4.D/	#	4ee-\	4.aa\	4.D/	-can-	4.d\	-can-	4.f#X\	-can-	4.a\	-can-	00.r	00.r
.	.	4ee-\	.	.	.	.	.	.	.	.	.	.	.
8C/	.	.	8gg\	8C/	-di	8e-\	-di	8g\	-di	8a\	-di	.	.
*	*	*	*	*	*	*	*Xij	*	*	*	*	*	*
!	!	!	!LO:TX:a:t=P:problem=♮ above	!	!	!	!	!	!	!	!	!	!
4BB-/	.	4dd\	4ffn\	4BB-/	reſ-	4d\	res-	4d\	res-	4b-\	res-	.	.
4C/	.	4ee-\	4gg\	4C/	-pon-	4e-\	-pon-	4g\	-pon-	(8cc\L	-pon-	.	.
.	.	.	.	.	.	.	.	.	.	8dd\J)	.	.	.
2D/	.	2a/	2ff#X\	2D/	-ſu-	2d\	-su-	2f#X\	-su-	2a\	-su-	.	.
=22	=22	=22	=22	=22	=22	=22	=22	=22	=22	=22	=22	=22	=22
2.GG/	.	4b-\	4gg\	4GG/	-ra	4d\	-ra	4g\	-ra	4g/	-ra	.	.
.	.	4b-\	4dd\	4r	.	4r	.	4r	.	4r	.	.	.
.	.	4b-\	4dd\	4r	.	4r	.	4r	.	4r	.	.	.
!	!	!	!	!LO:N:vis=2	!	!LO:N:vis=2	!	!LO:N:vis=2	!	!LO:N:vis=2	!	!	!
4C/	.	4cc\	4ee-\	2.rC	.	2.r	.	2.rA	.	2.rf	.	.	.
2F\	5	4a\	4cc\	.	.	.	.	.	.	.	.	.	.
.	.	4a\	4cc\	.	.	.	.	.	.	.	.	.	.
!	!	!	!LO:LB:g=original	!	!	!	!	!	!	!	!	!	!
=23	=23	=23	=23	=23	=23	=23	=23	=23-	=23	=23-	=23	=23	=23
!	!	!	!	!LO:TX:a:t=1	!	!	!	!	!	!	!	!	!
4BB-/	.	4b-\	4dd\	1.r	.	1.r	.	1.r	.	1.r	.	.	.
2E-\	5	4g\	4b-\	.	.	.	.	.	.	.	.	.	.
.	.	4g\	4b-\	.	.	.	.	.	.	.	.	.	.
4AA/	.	4a\	(8cc\L	.	.	.	.	.	.	.	.	.	.
.	.	.	8dd\J)	.	.	.	.	.	.	.	.	.	.
!	!	!LO:TX:a:t=P:problem=♯ above	!	!	!	!	!	!	!	!	!	!	!
4D\	.	4f#X\	4.a/	.	.	.	.	.	.	.	.	.	.
4DD/	4	4f#\	.	.	.	.	.	.	.	.	.	.	.
.	3	.	8g/	.	.	.	.	.	.	.	.	.	.
=24	=24	=24	=24	=24	=24	=24-	=24	=24	=24	=24	=24	=24	=24
2GG/	.	4g\	4g/	4r	.	4r	.	4r	.	4r	.	.	.
*	*	*	*	*	*	*	*ij	*	*	*	*	*	*
.	.	4b-\	4dd\	4G\	Ju-	4d\	Ju-	4g\	Ju-	4b-\	Ju-	.	.
4GG/	.	4b-\	4gg\	4G\	-di-	4d\	-di-	4g\	-di-	4b-\	-di-	.	.
4.D/	#	4.dd\	4.aa\	4.D/	-can-	4.d\	-can-	4.f#X\	-can-	4.a\	-can-	.	.
8C/	.	8ee-\	8gg\	8C/	-di	8e-\	-di	8g\	-di	8a\	-di	.	.
!	!	!	!LO:TX:a:t=P:problem=♮ above	!	!	!	!	!	!	!	!	!	!
4BB-/	.	4dd\	4ffn\	4BB-/	res-	4d\	res-	4d\	res-	4b-\	res-	.	.
!	!	!	!	!	!	!	!	!	!	!	!	!LO:PB:g=original	!
=25	=25	=25	=25	=25	=25	=25	=25	=25	=25	=25	=25	=25	=25-
!	!	!	!	!	!	!	!	!	!	!	!	!LO:N:vis=2	!LO:N:vis=2
4C/	.	4ee-\	4gg\	4C/	-pon-	4e-\	-pon-	4g\	-pon-	(8cc\L	-pon-	2.rg	2.r
.	.	.	.	.	.	.	.	.	.	8dd\J)	.	.	.
4D/	.	2a/	2ff#X\	2D/	-ſu-	2d\	-su-	2f#X\	-su-	2a\	-su-	.	.
4DD/	4	.	.	.	.	.	.	.	.	.	.	.	.
.	3	.	.	.	.	.	.	.	.	.	.	.	.
4GG/	.	4b-\	4gg\	4GG/	-ra	4d\	-ra	4g\	-ra	4g/	-ra	4r	4r
*	*	*	*	*	*	*	*Xij	*	*	*	*	*	*
!LO:TX:b:i:t=Tutti Judicandi	!	!	!	!	!	!	!	!	!	!	!	!	!
4C/	.	4ee-\	4gg\	4c\	Ju-	4c\	Ju-	4g\	Ju-	4ee-\	Ju-	4cc\	4ee-\
4C/	-	4ee-\	4gg\	4c\	-di-	4c\	-di-	4g\	-di-	4ee-\	-di	4cc\	4ee-\
!	!	!	!	!	!	!LO:LB:g=original	!	!	!	!LO:LB:g=original	!	!	!
=26	=26	=26	=26	=26	=26	=26	=26	=26	=26	=26	=26	=26	=26
2G\	.	2dd\	2gg\	2Bn\	-can-	2Bn\	-can-	2g\	-can-	2dd\	can-	2g/	2dd\
4G\	.	4bn\	4gg\	4G\	-di	4B\	-di	4g\	-di	4dd\	-di	4bn/	4dd\
!LO:LB:g=original	!	!	!	!	!	!	!	!	!	!	!	!	!
4r	.	4r	4r	4r	.	4r	.	4r	.	4r	.	4r	4r
*	*	*	*	*	*ij	*	*ij	*	*	*	*ij	*	*
4c\	.	4ee-\	4gg\	4c\	Ju-	4c\	Ju-	4g\	Ju-	4ee-\	Ju-	4cc\	4ee-\
4c\	.	4ee-\	4gg\	4c\	-di-	4c\	-di-	4g\	-di-	4ee-\	-di-	4cc\	4ee-\
!	!	!LO:LB:g=original	!	!LO:LB:g=original	!	!	!	!	!	!	!	!	!
=27	=27	=27	=27	=27	=27	=27	=27	=27	=27	=27	=27	=27	=27
!	!	!	!	!	!	!LO:SIC:v:s=2Bn	!	!	!	!	!	!	!
2G\	.	2dd\	2gg\	2Bn\	-can-	2B-\	-can-	2g\	-can-	2dd\	-can-	2g/	2dd\
4G\	.	4bn\	4gg\	4G\	-di	4Bn\	-di	4g\	-di	4dd\	-di	4bn/	4dd\
*	*	*	*	*	*Xij	*	*Xij	*	*	*	*Xij	*	*
4r	.	4r	4r	4r	.	4r	.	4r	.	4r	.	4r	4r
!	!	!	!	!	!	!	!	!LO:LB:g=original	!	!	!	!	!
4C/	.	4cc\	4gg\	4C/	Ju-	4c\	Ju-	4g\	Ju-	4ee-\	Ju-	4cc\	4ee-\
4C/	.	4ee-\	4gg\	4C/	-di-	4c\	-di-	4g\	-di-	4ee-\	-di-	4cc\	4ee-\
=28	=28	=28	=28	=28	=28	=28	=28	=28	=28	=28	=28	=28	=28
4.G\	.	4bn/	4.dd\	4.G\	-can-	4.Bn\	-can-	4.g\	-can-	4.dd\	-can-	4.bn/	4.dd\
.	.	4a-X/	.	.	.	.	.	.	.	.	.	.	.
!	!	!	!	!	!	!LO:TX:a:t=P:problem=♭ above	!	!	!	!	!	!	!
8F\	.	.	8dd\	8F\	-di	8A-X\	-di	8a-X\	-di	8dd\	-di	8a/	8dd\
4E-\	.	4g/	4ee-\	4E-\	res-	4G/	res-	4g\	res-	4ee-\	res-	4g/	4ee-\
4F\	.	4cc\	4aa-X\	4F\	-pon-	4c\	-pon-	4a-X\	-pon-	4cc\	-pon-	4a-X/	4cc\
2G\	4	2dd\	2gg\	2G\	-ſu-	2d\	-su-	2g\	-su-	2bn\	-su-	2g/	2dd\
.	3	.	.	.	.	.	.	.	.	.	.	.	.
=29	=29	=29	=29	=29	=29	=29	=29	=29	=29	=29	=29	=29	=29
2.C/	.	4cc\	4gg\	4C/	-ra	4e-\	-ra	4g\	-ra	4cc\	-ra	4e-/	4cc\
.	.	4ee-\	4gg\	4r	.	4r	.	4r	.	4r	.	4ee-\	4gg\
.	.	4ee-\	4gg\	4r	.	4r	.	4r	.	4r	.	4ee-\	4gg\
!	!	!	!LO:TX:a:t=P:problem=♭ above	!LO:N:vis=2	!	!	!	!LO:N:vis=2	!	!LO:N:vis=2	!	!	!
4F\	.	4ff\	4aa-X\	2.rC	.	2.r	.	2.rA	.	2.r	.	4ff\	4aa-X\
2BB-/	5	4dd\	4ff\	.	.	.	.	.	.	.	.	4dd\	4ff\
.	.	4dd\	4ff\	.	.	.	.	.	.	.	.	4dd\	4ff\
!	!	!	!	!	!	!	!	!	!	!	!	!	!LO:LB:g=original
=30	=30	=30	=30	=30	=30	=30	=30	=30-	=30	=30-	=30	=30	=30
!	!	!	!	!LO:TX:a:t=1	!	!	!	!	!	!	!	!	!
4E-\	.	4ee-\	4gg\	1.r	.	1.r	.	1.r	.	1.r	.	4ee-\	4gg\
2AA-X/	5	4cc\	4ee-\	.	.	.	.	.	.	.	.	4cc\	4ee-\
.	.	4cc\	4ee-\	.	.	.	.	.	.	.	.	4cc\	4ee-\
4D\	.	4dd\	(8ff\L	.	.	.	.	.	.	.	.	4dd\	(8ff\L
.	.	.	8gg\J)	.	.	.	.	.	.	.	.	.	8gg\J)
4G\	.	2bn\	2dd\	.	.	.	.	.	.	.	.	2g/	2ddm\
4GG/	4	.	.	.	.	.	.	.	.	.	.	.	.
.	3	.	.	.	.	.	.	.	.	.	.	.	.
!	!	!	!LO:LB:g=original	!	!	!	!	!	!	!	!	!	!
=31	=31	=31	=31	=31	=31	=31	=31	=31	=31	=31	=31	=31	=31
2C/	.	4cc\	4cc\	4r	.	4r	.	4r	.	4r	.	4e-/	4cc\
*	*	*	*	*	*	*	*ij	*	*	*	*	*	*
.	.	4cc\	4gg\	4C/	Ju-	4c\	Ju-	4g\	Ju-	4ee-\	Ju-	4cc\	4ee-\
4C/	.	4ee-\	4gg\	4C/	-di-	4c\	-di-	4g\	-di-	4ee-\	-di-	4cc\	4ee-\
!	!	!	!	!	!	!	!	!	!	!	!	!LO:TX:a:t=P:problem=♮ above	!
4.G\	.	4bn/	4.dd\	4.G\	-can-	4.Bn\	-can-	4.g\	-can-	4.dd\	-can-	4.bn\	4.dd\
.	.	4a-X/	.	.	.	.	.	.	.	.	.	.	.
.	.	.	.	.	.	.	.	.	.	.	.	8qqb\	.
!	!	!	!	!	!	!	!	!	!	!	!	!LO:SIC:v:s=8a-	!
8F\	.	.	8dd\	8F\	-di	8A-X\	-di	8a-X\	-di	8dd\	-di	8a/	8dd\
4E-\	.	4g/	4ee-\	4E-\	res-	4G/	res-	4g\	res-	4ee-\	res-	4g/	4ee-\
!	!	!	!	!	!	!	!	!	!	!	!	!LO:LB:g=original	!
=32	=32	=32	=32	=32	=32	=32	=32	=32	=32	=32	=32	=32	=32
4F\	-	4cc\	4aa-X\	4F\	-pon-	4c\	-pon-	4a-X\	-pon-	4cc\	-pon-	4a-X/	4cc\
2G\	#	2dd\	2gg\	2G\	-ſu-	2d\	-su-	2g\	-su-	2bn\	-su-	2g/	2ddm\
!LO:TX:b:t=Citisime\nVerte	!	!	!	!	!	!	!	!	!	!	!	!LO:TX:a:t=P:||:problem=ozdobna kreska końcowa 	!
2.C/	.	2.cc\	2.gg\	2.C/	-ra	2.en\	-ra	2.g\	-ra	2.cc\	-ra	2.en/	2.cc\
*	*	*	*	*	*	*	*Xij	*	*	*	*	*	*
==	==	==	==	==	==	==	==	==	==	==	==	==	==
*-	*-	*-	*-	*-	*-	*-	*-	*-	*-	*-	*-	*-	*-
!!!system-decoration: [g1][g2][g3]s9
!!!ENC: Zofia Niedbalska
!!!END: 2020-12-02
!!!ENC: Krzysztof Stępień
!!!END: 2020-04-21
